icons/Hare_filled.svg

<svg width="24" height="24" viewBox="0 0 24 24" fill="none" xmlns="http://www.w3.org/2000/svg">
<path fill-rule="evenodd" clip-rule="evenodd" d="M18.0437,14.0538h-0.4996c-0.0101,0.0012 -0.0204,0.0019 -0.0309,0.0019h-0.568l2.6443,2.6443c0.8787,0.8787 0.8787,2.3033 0,3.182c-0.8786,0.8786 -2.3033,0.8786 -3.1819,0l-1.9817,-1.9817c-1.4644,-1.4644 -3.8388,-1.4644 -5.30326,0l-1.9816,1.9817c-0.87868,0.8786 -2.3033,0.8786 -3.18198,0c-0.87868,-0.8787 -0.87868,-2.3033 0,-3.182l1.74693,-1.747c0.06232,-0.5841 0.20783,-1.1434 0.4245,-1.6659l-0.41381,-0.3917c-0.86027,-0.8143 -1.00834,-2.1302 -0.35056,-3.11532l0.07646,-0.11451c0.40322,-0.6039 1.08139,-0.96654 1.80754,-0.96655c0.91759,-0.00001 1.70192,0.56842 2.02089,1.37218c0.74819,-0.33149 1.57609,-0.51553 2.44639,-0.51553h0.9364c-0.071,-0.09478 -0.149,-0.18494 -0.2337,-0.26965l-1.4392,-1.43922c-1.00583,-1.00581 -1.00583,-2.63656 0,-3.64237c1.1064,-1.10641 2.9356,-0.97876 3.8776,0.27059l1.7,2.25458c0.2368,0.31398 0.5134,0.59581 0.8229,0.83837l2.2833,1.7895c0.6356,0.49814 1.0069,1.26083 1.0069,2.06843c0,1.4513 -1.1766,2.6279 -2.6279,2.6279zM16.4216,9.44902c-0.5523,0 -1,0.44772 -1,0.99998c0,0.5523 0.4477,1 1,1c0.5523,0 1,-0.4477 1,-1c0,-0.55226 -0.4477,-0.99998 -1,-0.99998z" fill="#002B51"/>
</svg>

<svg width="24" height="24" viewBox="0 0 24 24" fill="none" xmlns="http://www.w3.org/2000/svg">
<path fill-rule="evenodd" clip-rule="evenodd" d="M18.0437 14.0538L17.5441 14.0538C17.534 14.055 17.5237 14.0557 17.5132 14.0557H16.9452L19.5895 16.7C20.4682 17.5787 20.4682 19.0033 19.5895 19.882C18.7109 20.7606 17.2862 20.7606 16.4076 19.882L14.4259 17.9003C12.9615 16.4359 10.5871 16.4359 9.12264 17.9003L7.14104 19.882C6.26236 20.7606 4.83774 20.7606 3.95906 19.882C3.08038 19.0033 3.08038 17.5787 3.95906 16.7L5.70599 14.953C5.76831 14.3689 5.91382 13.8096 6.13049 13.2871L5.71668 12.8954C4.85641 12.0811 4.70834 10.7652 5.36612 9.78008L5.44258 9.66557C5.8458 9.06167 6.52397 8.69903 7.25012 8.69902C8.16771 8.69901 8.95204 9.26744 9.27101 10.0712C10.0192 9.73971 10.8471 9.55567 11.7174 9.55567H12.6538C12.5828 9.46089 12.5048 9.37073 12.4201 9.28602L10.9809 7.8468C9.97507 6.84099 9.97507 5.21024 10.9809 4.20443C12.0873 3.09802 13.9165 3.22567 14.8585 4.47502L16.5585 6.7296C16.7953 7.04358 17.0719 7.32541 17.3814 7.56797L19.6647 9.35747C20.3003 9.85561 20.6716 10.6183 20.6716 11.4259C20.6716 12.8772 19.495 14.0538 18.0437 14.0538ZM17.4216 10.449C17.4216 11.0013 16.9739 11.449 16.4216 11.449C15.8693 11.449 15.4216 11.0013 15.4216 10.449C15.4216 9.89674 15.8693 9.44902 16.4216 9.44902C16.9739 9.44902 17.4216 9.89674 17.4216 10.449Z" fill="#002B51"/>
</svg>
